!! 00000] TT[00
!! NN
!!!OTL: Huanghe li piaoqi yi zhi chuan
!!!ARE: Asia, China,ÿNingxia, Yinchuan
!! Ethnic Group: Han
!! I, 188
!!!SCT: C0053
!!!YEM: Copyright 1995, estate of Helmut Schaffrath.
**kern
*ICvox
*Ivox
*M2/4
*k[b-]
*F:
{2cc
=1
8r
8ff
8b-
16cc
16cc
=2
8ff
16dd
16cc
8b-
8g
=3
8r
8g
8g
8c
=4
8f
16e
16d
4c}
=5
{8r
8cc
8f
8g
=6
8cc
16g
16f
16e
16d
8c
=7
4f
16g
16f
16e
16d
=8
2c}
=9
{8r
8cc
8f
8g
=10
8cc
16g
16f
16e
16d
8c
=11
4f
16g
16f
16e
16d
=12
2c}
==
!!!AGN: Wuge, Hanchuan diao
!! vgl. Kommentar zu Nr. 187
!!!ONB: ESAC (Essen Associative Code) Database: CHINA
!!!AMT: simple duple
!!!AIN: vox
!!!EED: Helmut Schaffrath
!!!EEV: 1.0
*-
